packages/core/src/svgs/tokens/branded/OM.svg

<svg width="24" height="24" viewBox="0 0 24 24" fill="none" xmlns="http://www.w3.org/2000/svg">
<path fill-rule="evenodd" clip-rule="evenodd" d="M3.875 10.125L4.29166 10.525L3.875 10.9208L3.45833 10.525L3.875 10.125ZM3.52916 11.6458C3.72083 11.8292 4.02916 11.8292 4.22083 11.6458L5.33333 10.5417L5.75 10.8541V13.875H5.33333V11.2542L4.63749 11.9083C4.42917 12.1083 4.15 12.2083 3.875 12.2083C3.6 12.2083 3.32083 12.1083 3.11249 11.9083L2.41667 11.25V13.875H2V10.8541L2.41667 10.5417L3.52916 11.6458ZM5.95833 13.875L7.32083 10.5417H7.93333L9.29167 13.875H8.83333L8.48333 13.0416H6.79166L6.43333 13.875H5.95833ZM7.60833 10.9584L6.92917 12.625H8.3375L7.63333 10.9584H7.60833ZM12 13.1625H11.975L9.99167 10.5417H9.49999V13.875H9.91666V11.175H9.94583L12 13.8708L12.4167 13.875V10.5417H12V13.1625ZM12.8333 10.9542V10.5417H15.75V10.9584H14.5V13.875H14.0833V10.9584H12.8333V10.9542ZM16.1667 10.5417H17.5792C18.2875 10.5417 18.6666 10.925 18.6666 11.4584V11.525C18.6666 12.025 18.4375 12.1584 18.175 12.2333V12.2625C18.475 12.275 18.6666 12.4459 18.6666 12.8708V13.875H18.25V12.9208C18.25 12.625 17.925 12.625 17.6667 12.625H16.5834V13.875H16.1667V10.5417ZM18.6666 13.875L20.0292 10.5417H20.6417L22 13.875H21.5417L21.1917 13.0416H19.5L19.1417 13.875H18.6666ZM16.5834 12.2083H17.5167C17.9333 12.2083 18.25 11.8875 18.25 11.5833C18.25 11.2792 17.9458 10.9584 17.5 10.9584H16.5834V12.2083ZM19.6375 12.625L20.3167 10.9584H20.3417L21.0459 12.625H19.6375Z" fill="url(#paint0_linear_364_7952)"/>
<defs>
<linearGradient id="paint0_linear_364_7952" x1="2" y1="12" x2="22" y2="12" gradientUnits="userSpaceOnUse">
<stop stop-color="#FFB298"/>
<stop offset="1" stop-color="#FE95CE"/>
</linearGradient>
</defs>
</svg>

<svg xmlns="http://www.w3.org/2000/svg" width="24" height="24" fill="none" viewBox="0 0 24 24">
    <path fill="url(#OM__a)" fill-rule="evenodd" d="m3.875 10.125.417.4-.417.396-.417-.396zm-.346 1.52c.192.184.5.184.692 0l1.112-1.103.417.312v3.021h-.417v-2.62l-.696.653c-.208.2-.487.3-.762.3s-.554-.1-.763-.3l-.695-.658v2.625H2v-3.02l.417-.313zm2.43 2.23 1.362-3.333h.612l1.359 3.333h-.459l-.35-.833H6.792l-.359.833zm1.65-2.917-.68 1.667h1.409l-.705-1.667zM12 13.162h-.025l-1.983-2.62H9.5v3.333h.417v-2.7h.029L12 13.871l.417.004v-3.333H12zm.833-2.208v-.412h2.917v.416H14.5v2.917h-.417v-2.917h-1.25zm3.334-.412h1.412c.709 0 1.088.383 1.088.916v.067c0 .5-.23.633-.492.708v.03c.3.012.492.183.492.608v1.004h-.417v-.954c0-.296-.325-.296-.583-.296h-1.084v1.25h-.416zm2.5 3.333 1.362-3.333h.613L22 13.875h-.458l-.35-.833H19.5l-.358.833zm-2.084-1.667h.934c.416 0 .733-.32.733-.625 0-.304-.304-.625-.75-.625h-.917zm3.055.417.679-1.667h.025l.704 1.667z" clip-rule="evenodd"/>
    <defs>
        <linearGradient id="OM__a" x1="2" x2="22" y1="12" y2="12" gradientUnits="userSpaceOnUse">
            <stop stop-color="#FFB298"/>
            <stop offset="1" stop-color="#FE95CE"/>
        </linearGradient>
    </defs>
</svg>
